X:1
T:As I Went Out for a Ramble
M:3/4
L:1/8
K:C
 C2| E4 E2| C4 DE| D2 C4| z4 GG| A4 AA| G4 E2| G6| z4 GG| A4 A2| G4 CC|\
 E2 F2 GG| E2- C2 CD| E4 F2| E2- B,2B,-D| C6| z4||

